plasma/look-and-feel/com.github.sudorook.materia-light/contents/lockscreen/images/system-reboot-pressed.svg

<svg xmlns="http://www.w3.org/2000/svg" width="22" height="22" version="1.1">
 <circle style="opacity:0.19;fill:#000000" cx="11" cy="11" r="11"/>
 <path style="fill:#444444" d="m 11.015625,4 a 1.0001,1.0001 0 1 0 -0.0039,2 C 12.409503,6.0024 13.742269,6.589407 14.6875,7.619141 15.538036,8.545713 15.998387,9.75264 15.998047,11 h -1.994141 l 1.5,2 1.5,2 1.5,-2 1.5,-2 H 17.998047 C 17.997824,9.254653 17.349711,7.561524 16.160156,6.265625 14.837636,4.824874 12.971338,4.003413 11.015625,4 Z M 5,7 3.5,9 2,11 H 4.0058594 C 4.0060826,12.745347 4.6541957,14.438476 5.84375,15.734375 7.16627,17.175127 9.032568,17.996587 10.988281,18 a 1.0001,1.0001 0 1 0 0.0039,-2 C 9.594406,15.99756 8.261637,15.410593 7.316406,14.380859 6.46587,13.454287 6.005519,12.24736 6.005859,11 H 8 L 6.5,9 Z"/>
</svg>

<?xml version="1.0" encoding="UTF-8"?>
<svg width="22" height="22" version="1.1" xmlns="http://www.w3.org/2000/svg">
 <circle cx="11" cy="11" r="11" opacity=".19"/>
 <path d="m11.016 4a1.0001 1.0001 0 1 0-0.0039 2c1.3978 0.0024 2.7305 0.58941 3.6758 1.6191 0.85054 0.92657 1.3109 2.1335 1.3105 3.3809h-1.9941l3 4 3-4h-2.0059c-2.23e-4 -1.7453-0.64834-3.4385-1.8379-4.7344-1.3225-1.4408-3.1888-2.2622-5.1445-2.2656zm-6.0156 3-3 4h2.0059c2.232e-4 1.7453 0.64834 3.4385 1.8379 4.7344 1.3225 1.4408 3.1888 2.2622 5.1445 2.2656a1.0001 1.0001 0 1 0 0.0039-2c-1.3978-0.00244-2.7305-0.58941-3.6758-1.6191-0.85054-0.92657-1.3109-2.1335-1.3105-3.3809h1.9941l-1.5-2z" fill="#444"/>
</svg>
